X:SSF 14-21 66
M:4/4
K:Ddor
P:A
D2DF ADFA DFAD GFEC A,2A,C EA,CE A,CEG AGEF D2DF ADFA DFAD FGAB c2Gc Ecde |1 fedc dcAF :|2 fedc dcAc ||
P:B
d2fd gdfd d2fd gfec |1,3 d2fd gdfd e2fe gfec :|2 gabg agg2 eff2 edcA :|4 cege agfd gfec dcAF ||

%      SSF 14-21 67 = WFS 13-10 23 Bonny Kate

%      SSF 14-21 68 = EATMD 13-01 05 The Sloe

%      SSF 14-21 69 = WFS 13-07 15 L.N.B. Polka,
% into SSF 14-21 70 = WFS 13-11 19 Rochdale Coconut Dance

% 3:05h

%      SSF 14-21 71 = SSF 14-18 039 

%      SSF 14-21 72 = WFS 13-11 30 Black Joak

%      SSF 14-21 73 = SSF 14-18 055 Hunt The Squirrel

%      SSF 14-21 74 = SSF 14-18 068 La Mourisque

%      SSF 14-21 75 = BFS 14-04 38 Grimstock

